src/icons/k8s-vol.svg

<?xml version="1.0" encoding="UTF-8"?>
<svg xmlns="http://www.w3.org/2000/svg" xmlns:xlink="http://www.w3.org/1999/xlink" width="32.978184" height="32" viewBox="0 0 32.978184 32" version="1.1">
<g id="surface1">
<path style=" stroke:none;fill-rule:nonzero;fill:rgb(19.607843%,42.352942%,89.803922%);fill-opacity:1;" d="M 16.378906 0.847656 C 16.105469 0.859375 15.832031 0.929688 15.585938 1.046875 L 4.722656 6.238281 C 4.15625 6.507812 3.742188 7.023438 3.601562 7.636719 L 0.921875 19.292969 C 0.796875 19.835938 0.898438 20.402344 1.203125 20.871094 C 1.238281 20.925781 1.277344 20.980469 1.320312 21.035156 L 8.839844 30.382812 C 9.234375 30.871094 9.832031 31.15625 10.460938 31.15625 L 22.515625 31.152344 C 23.148438 31.152344 23.746094 30.871094 24.140625 30.378906 L 31.65625 21.03125 C 32.050781 20.542969 32.199219 19.898438 32.058594 19.289062 L 29.375 7.632812 C 29.234375 7.019531 28.820312 6.507812 28.25 6.234375 L 17.386719 1.046875 C 17.074219 0.898438 16.726562 0.828125 16.378906 0.847656 Z M 16.378906 0.847656 "/>
<path style=" stroke:none;fill-rule:nonzero;fill:rgb(100%,100%,100%);fill-opacity:1;" d="M 16.375 0.00390625 C 16.082031 0.0195312 15.796875 0.0898438 15.535156 0.214844 L 4.070312 5.695312 C 3.46875 5.980469 3.03125 6.523438 2.882812 7.167969 L 0.0546875 19.472656 C -0.078125 20.046875 0.03125 20.648438 0.351562 21.140625 C 0.390625 21.203125 0.433594 21.257812 0.476562 21.3125 L 8.414062 31.183594 C 8.828125 31.699219 9.460938 32 10.128906 32 L 22.851562 31.996094 C 23.519531 31.996094 24.152344 31.695312 24.566406 31.179688 L 32.5 21.3125 C 32.914062 20.792969 33.070312 20.117188 32.921875 19.472656 L 30.089844 7.164062 C 29.941406 6.519531 29.503906 5.980469 28.90625 5.691406 L 17.4375 0.214844 C 17.109375 0.0585938 16.742188 -0.015625 16.375 0.00390625 Z M 16.378906 0.847656 C 16.726562 0.828125 17.074219 0.898438 17.386719 1.046875 L 28.25 6.234375 C 28.820312 6.507812 29.230469 7.023438 29.375 7.632812 L 32.058594 19.289062 C 32.199219 19.902344 32.050781 20.542969 31.65625 21.03125 L 24.140625 30.378906 C 23.746094 30.871094 23.148438 31.15625 22.515625 31.152344 L 10.460938 31.15625 C 9.828125 31.15625 9.230469 30.871094 8.839844 30.382812 L 1.320312 21.035156 C 1.277344 20.984375 1.238281 20.929688 1.203125 20.871094 C 0.898438 20.402344 0.796875 19.835938 0.921875 19.292969 L 3.601562 7.636719 C 3.742188 7.023438 4.15625 6.511719 4.722656 6.238281 L 15.585938 1.046875 C 15.832031 0.929688 16.105469 0.859375 16.378906 0.847656 Z M 16.378906 0.847656 "/>
<path style=" stroke:none;fill-rule:evenodd;fill:rgb(100%,100%,100%);fill-opacity:1;" d="M 8.023438 13.21875 C 8.023438 14.355469 11.8125 15.273438 16.488281 15.273438 C 21.164062 15.273438 24.953125 14.355469 24.953125 13.21875 L 24.953125 18.78125 C 24.953125 19.917969 21.164062 20.839844 16.488281 20.839844 C 11.8125 20.839844 8.023438 19.917969 8.023438 18.78125 Z M 8.023438 13.21875 "/>
<path style=" stroke:none;fill-rule:evenodd;fill:rgb(100%,100%,100%);fill-opacity:1;" d="M 8.023438 13.21875 C 8.023438 12.082031 11.8125 11.160156 16.488281 11.160156 C 21.164062 11.160156 24.953125 12.082031 24.953125 13.21875 C 24.953125 14.355469 21.164062 15.273438 16.488281 15.273438 C 11.8125 15.273438 8.023438 14.355469 8.023438 13.21875 Z M 8.023438 13.21875 "/>
<path style="fill:none;stroke-width:0.264583;stroke-linecap:butt;stroke-linejoin:round;stroke:rgb(19.607843%,42.352942%,89.803922%);stroke-opacity:1;stroke-miterlimit:10;" d="M 14.828994 8.192974 C 14.828994 8.81463 12.756806 9.316655 10.199683 9.316655 C 7.64256 9.316655 5.570371 8.81463 5.570371 8.192974 C 5.570371 7.571317 7.64256 7.067156 10.199683 7.067156 C 12.756806 7.067156 14.828994 7.571317 14.828994 8.192974 L 14.828994 11.235032 C 14.828994 11.856688 12.756806 12.36085 10.199683 12.36085 C 7.64256 12.36085 5.570371 11.856688 5.570371 11.235032 L 5.570371 8.192974 " transform="matrix(1.828532,0,0,1.828532,-2.162165,-1.762365)"/>
</g>
</svg>

<svg role="img" viewBox="0 0 32.978 32" xmlns="http://www.w3.org/2000/svg"><path d="M16.379.848a2.066 2.066 0 0 0-.793.199L4.723 6.238a2.06 2.06 0 0 0-1.121 1.399L.922 19.293a2.046 2.046 0 0 0 .398 1.742l7.52 9.348c.394.488.992.773 1.62.773l12.056-.004c.632 0 1.23-.28 1.625-.773l7.515-9.348a2.045 2.045 0 0 0 .403-1.742L29.375 7.633a2.063 2.063 0 0 0-1.125-1.399L17.387 1.047a2.082 2.082 0 0 0-1.008-.2m0 0" style="stroke:none;fill-rule:nonzero;fill:rgb(19.607843%,42.352942%,89.803922%);fill-opacity:1"/><path d="M16.375.004a2.22 2.22 0 0 0-.84.21L4.07 5.696a2.171 2.171 0 0 0-1.187 1.473L.055 19.473a2.164 2.164 0 0 0 .297 1.668c.039.062.082.117.125.172l7.937 9.87A2.2 2.2 0 0 0 10.13 32l12.723-.004c.668 0 1.3-.3 1.714-.816l7.934-9.867a2.17 2.17 0 0 0 .422-1.84L30.09 7.164a2.185 2.185 0 0 0-1.184-1.473L17.438.215a2.206 2.206 0 0 0-1.063-.211m.004.844c.348-.02.695.05 1.008.199L28.25 6.234c.57.274.98.79 1.125 1.399l2.684 11.656a2.042 2.042 0 0 1-.403 1.742l-7.515 9.348a2.065 2.065 0 0 1-1.625.773l-12.055.004c-.633 0-1.23-.285-1.621-.773l-7.52-9.348a2.046 2.046 0 0 1-.398-1.742l2.68-11.656a2.068 2.068 0 0 1 1.12-1.399l10.864-5.191c.246-.117.52-.188.793-.2m0 0" style="stroke:none;fill-rule:nonzero;fill:rgb(100%,100%,100%);fill-opacity:1"/><path d="M8.023 13.219c0 1.136 3.79 2.054 8.465 2.054 4.676 0 8.465-.918 8.465-2.054v5.562c0 1.137-3.789 2.059-8.465 2.059-4.675 0-8.465-.922-8.465-2.059Zm0 0c0-1.137 3.79-2.059 8.465-2.059 4.676 0 8.465.922 8.465 2.059 0 1.136-3.789 2.054-8.465 2.054-4.675 0-8.465-.918-8.465-2.054m0 0" style="stroke:none;fill-rule:evenodd;fill:rgb(100%,100%,100%);fill-opacity:1"/><path d="M14.829 8.193c0 .622-2.072 1.124-4.63 1.124-2.556 0-4.629-.502-4.629-1.124 0-.622 2.073-1.126 4.63-1.126s4.629.504 4.629 1.126v3.042c0 .622-2.072 1.126-4.63 1.126-2.556 0-4.629-.504-4.629-1.126V8.193" style="fill:none;stroke-width:0.264583;stroke-linecap:butt;stroke-linejoin:round;stroke:rgb(19.607843%,42.352942%,89.803922%);stroke-opacity:1;stroke-miterlimit:10" transform="translate(-2.162 -1.762)scale(1.82853)"/></svg>
